dist/img/svg/filter.svg

<svg width="16" height="16" viewBox="0 0 16 16" fill="none" xmlns="http://www.w3.org/2000/svg">
<path d="M1.59961 3.2001L7.99961 3.2001M1.59961 8.0001H7.99961M7.99961 8.0001V9.6001M7.99961 8.0001V6.4001M1.59961 12.8001H4.79961M7.99961 12.8001L14.3996 12.8001M11.1996 8.0001H14.3996M11.1996 3.2001L14.3996 3.2001M11.1996 3.2001V4.8001M11.1996 3.2001V1.6001M5.19961 14.4001V11.2001" stroke="currentColor" stroke-linecap="square" stroke-linejoin="round"/>
</svg>

<svg width="16" height="16" viewBox="0 0 16 16" fill="none" xmlns="http://www.w3.org/2000/svg"><path d="M1.6 3.2H8M1.6 8H8m0 0v1.6M8 8V6.4m-6.4 6.4h3.2m3.2 0h6.4M11.2 8h3.2m-3.2-4.8h3.2m-3.2 0v1.6m0-1.6V1.6m-6 12.8v-3.2" stroke="currentColor" stroke-linecap="square" stroke-linejoin="round"/></svg>
